images/Logo_Full.svg

<svg fill="none" height="105" viewBox="0 0 383 105" width="383" xmlns="http://www.w3.org/2000/svg"><g fill="#fff"><path d="m14.6284 17.3561h-7.57536l-1.21602 3.5422h-5.647717l7.755477-20.397042h5.79182l7.7555 20.397042h-5.6477zm-1.4052-4.029-2.414-6.79596-2.35099 6.79596z"/><path d="m54.3154.501258v15.908442h6.3052v4.5066h-11.6017v-20.415042z"/><path d="m100.191 5.0079h-6.3054v3.38899h5.9449v4.50661h-5.9449v3.5152h6.3054v4.5066h-11.6019v-20.424042h11.6019z"/><path d="m135.032 10.0193-6.35-9.518042h6.539l2.765 5.272762 3.432-5.272762h6.54l-6.729 9.518042 7.593 10.879h-6.503l-4.08-6.6518-4.792 6.6518h-6.405z"/><path d="m188.618 17.3561h-7.567l-1.216 3.5422h-5.657l7.774-20.397042h5.783l7.728 20.397042h-5.656zm-1.406-4.029-2.378-6.79596-2.378 6.79596z"/><path d="m223.008 20.8983v-20.397042h5.297l9.791 12.474342v-12.474342h5.269v20.397042h-5.269l-9.791-12.47437v12.47437z"/><path d="m272.829.501329h7.846c1.345-.008621 2.676.277481 3.9.838231 1.194.5426 2.278 1.3003 3.198 2.2353.912.93344 1.639 2.03139 2.143 3.23576.512 1.22492.775 2.53921.775 3.86668 0 1.3275-.263 2.6418-.775 3.8667-.498 1.2133-1.222 2.3206-2.135 3.2628-.9.9382-1.966 1.7021-3.143 2.2533-1.232.5627-2.573.8488-3.927.8383h-7.846zm5.305 15.908471h1.216c.84.0142 1.675-.1326 2.46-.4327.676-.267 1.29-.6722 1.801-1.1897.501-.5145.887-1.1287 1.135-1.8027.269-.7329.404-1.5085.396-2.2894.006-.77557-.132-1.54555-.405-2.2713-.254-.68287-.65-1.30374-1.163-1.82128s-1.129-.91985-1.81-1.18014c-.775-.29836-1.601-.44522-2.432-.43264h-1.216z"/><path d="m336.224 20.8983h-6.549l-5.053-7.8415v7.8415h-5.296v-20.397002h8.242c1.012-.01793 2.02.150091 2.972.49573.79.301032 1.505.768242 2.099 1.370022.548.57414.971 1.25538 1.243 2.00094.282.78005.422 1.60418.414 2.43359.065 1.34898-.329 2.68017-1.117 3.77652-.841 1.0224-2.014 1.7175-3.314 1.9649zm-11.647-11.28458h1c.852.06012 1.699-.16848 2.405-.64896.279-.22084.501-.50569.647-.83044.145-.32475.211-.67986.191-1.0353.02-.35544-.046-.71056-.191-1.03531-.146-.32475-.368-.60959-.647-.83044-.708-.47603-1.554-.7042-2.405-.64896h-1z"/><path d="m376.127 17.3561h-7.566l-1.216 3.5422h-5.648l7.756-20.397042h5.782l7.765 20.397042h-5.657zm-1.414-4.029-2.378-6.79596-2.378 6.79596z"/><path d="m3.46815 41.9624 5.63871 14.1508 5.71974-14.1508h3.3689l-9.18772 21.9383-8.899432-21.9383z"/><path d="m61.4764 57.4201h-8.7283l-2.3059 4.9483h-3.2788l10.0884-21.6319 9.7282 21.6319h-3.3688zm-1.2521-2.8933-3.0265-6.9402-3.1526 6.9402z"/><path d="m99.9836 62.3683v-21.7851l14.8714 15.566v-14.187h3.072v21.6319l-14.845-15.5028v14.277z"/><path d="m169.954 62.3684h-6.602l-5.054-7.8416v7.8416h-5.296v-20.4061h8.233c1.013-.0192 2.022.152 2.972.5048.769.2819 1.467.7302 2.043 1.3128.576.5827 1.017 1.2855 1.29 2.0581.285.7796.428 1.6037.423 2.4336.063 1.35-.334 2.6813-1.126 3.7766-.841 1.0223-2.014 1.7175-3.314 1.9649zm-11.656-11.2756h1c.851.0552 1.697-.173 2.405-.649.264-.2351.474-.5232.619-.8455.144-.3223.219-.6715.219-1.0247 0-.3533-.075-.7025-.219-1.0248-.145-.3223-.355-.6104-.619-.8455-.708-.476-1.554-.7042-2.405-.649h-1z"/><path d="m211.046 41.9624v20.406h-5.296v-20.406zm13.511 0v15.4037c.002.5513-.032 1.1022-.099 1.6494-.047.4438-.149.8799-.306 1.2979-.349.8174-.875 1.547-1.54 2.1361-1.269 1.1421-2.924 1.7605-4.63 1.7306-1.084.0149-2.154-.2543-3.102-.7808s-1.742-1.2921-2.303-2.2206l3.459-3.5422c.057.5329.263 1.0391.595 1.4601.135.1706.308.3079.505.4017.196.0937.412.1413.63.1391.991 0 1.486-.7842 1.486-2.3525v-15.3225z"/><path d="m277.125 48.7854c-.534-.6994-1.222-1.2659-2.011-1.6552s-1.658-.5909-2.537-.5891c-.755-.0073-1.503.1399-2.198.4326-.655.275-1.248.6762-1.748 1.1808-.498.5176-.888 1.1307-1.144 1.8026-.284.7043-.428 1.4576-.423 2.2173-.007.7686.137 1.531.423 2.2443.264.6627.656 1.2666 1.154 1.7771.497.5105 1.091.9174 1.747 1.1973.683.2913 1.419.4386 2.162.4326.872-.0158 1.731-.2169 2.52-.5898s1.489-.9092 2.055-1.5734v6.3093l-.54.1893c-.743.2689-1.505.4828-2.279.6399-.686.1321-1.382.1985-2.081.1983-2.777-.0274-5.435-1.1401-7.404-3.1005-.995-.9895-1.796-2.1575-2.36-3.4431-.582-1.368-.882-2.8395-.882-4.3264 0-1.4868.3-2.9584.882-4.3264.851-1.9038 2.234-3.5208 3.983-4.6562 1.748-1.1354 3.787-1.7407 5.871-1.7432.806.0008 1.609.0885 2.396.2614.849.1855 1.679.4511 2.477.7932z"/><path d="m320.217 50.3808 6.459-8.4184h6.548l-8.106 9.6622 8.845 10.7348h-6.873l-6.891-8.842v8.842h-5.296v-20.397h5.296z"/><path d="m381.505 46.469h-6.306v3.416h5.945v4.5067h-5.945v3.5151h6.306v4.5067h-11.593v-20.4511h11.593z"/><path d="m5.75581 83.4236 4.92709 12.4202 4.9452-12.4202h5.7558l-8.5932 20.4154h-4.21554l-8.57516-20.4154z"/><path d="m173.061 103.838h-6.602l-5.053-7.8411v7.8411h-5.297v-20.4146h8.242c1.014-.0192 2.022.152 2.973.5047.77.2799 1.468.7263 2.046 1.3074.578.5812 1.02 1.2827 1.295 2.0546.285.7827.428 1.6097.424 2.4426.061 1.3471-.336 2.6751-1.126 3.7675-.842 1.0224-2.014 1.7175-3.315 1.9649zm-11.655-11.2751h1c.851.0552 1.696-.173 2.405-.649.263-.2351.474-.5232.618-.8455.145-.3223.219-.6716.219-1.0248s-.074-.7024-.219-1.0247c-.144-.3223-.355-.6105-.618-.8455-.71-.4723-1.555-.7002-2.405-.649h-1z"/><path d="m240.726 88.6602c-.521-.43-1.104-.7794-1.729-1.0365-.532-.2179-1.101-.3341-1.676-.3425-.596-.0276-1.186.1436-1.675.4867-.203.1433-.368.3339-.481.5553s-.171.467-.167.7156c-.012.3309.104.6537.324.9013.245.2527.535.4575.856.6039.382.1846.78.3354 1.188.4507.442.1261.901.2613 1.307.4055 1.455.4036 2.771 1.2022 3.801 2.3075.84 1.0743 1.268 2.4139 1.207 3.7765.012.9723-.168 1.9373-.532 2.8388-.341.835-.868 1.581-1.54 2.182-.725.632-1.571 1.11-2.486 1.406-1.079.346-2.208.514-3.342.495-2.568.003-5.073-.801-7.161-2.298l2.27-4.2723c.698.6408 1.491 1.1697 2.351 1.5683.721.3308 1.504.5059 2.297.5138.698.0549 1.39-.1578 1.937-.5949.195-.1672.352-.3744.461-.6076s.167-.487.169-.7444c.006-.276-.05-.55-.162-.8021-.13-.2463-.315-.4592-.54-.622-.304-.2161-.634-.3918-.982-.5227-.406-.1623-.901-.3425-1.478-.5408-.576-.1983-1.36-.4597-2.017-.7211-.638-.2478-1.231-.5979-1.757-1.0365-.526-.4517-.95-1.0111-1.243-1.6404-.34-.7901-.5-1.646-.468-2.5057-.01-.9248.158-1.8428.495-2.704.316-.7937.795-1.5123 1.405-2.1091.636-.606 1.39-1.0727 2.216-1.37.942-.3358 1.937-.5006 2.937-.4868 1.067.0092 2.129.1515 3.161.4237 1.1.2783 2.162.6899 3.162 1.2258z"/><path d="m312.867 87.9302h-6.305v3.407h5.945v4.5066h-5.945v3.5152h6.305v4.507h-11.601v-20.4424h11.601z"/><path d="m376.235 83.4236v15.9083h6.351v4.5071h-11.647v-20.4154z"/><path d="m86.3191 104.082c1.0676-.223 2.069-.691 2.9255-1.366.8564-.676 1.5447-1.541 2.0106-2.528.8273-1.789 1.0334-3.8035.5855-5.7232-.4121-1.8218-1.4397-3.4454-2.9095-4.5968-.7535-.6007-1.621-1.0421-2.5499-1.2977-.929-.2557-1.9001-.3201-2.8546-.1895-1.9797.2732-3.7708 1.32-4.9811 2.9113-.6168.8139-1.0672 1.7416-1.3253 2.7298-.2581.9883-.3189 2.0178-.179 3.0297.2643 2.134 1.3263 4.0884 2.9725 5.4714.8687.713 1.8856 1.223 2.9764 1.493 1.0909.269 2.2281.292 3.3289.066zm.054.306c-2.3169.348-4.6824-.121-6.6926-1.325-1.0484-.621-1.958-1.451-2.6723-2.439-.7143-.9873-1.2181-2.1114-1.4802-3.302-.5125-2.4914-.0169-5.0844 1.3782-7.2107.7097-1.0777 1.6247-2.005 2.6926-2.7288 1.068-.7237 2.2681-1.2298 3.5316-1.4894 2.6204-.5431 5.3491-.0384 7.6023 1.4061 1.1346.737 2.098 1.7089 2.8252 2.8501.7273 1.1413 1.2014 2.4254 1.3904 3.7656.1744 1.2978.0579 2.6182-.3409 3.8654-.3989 1.2472-1.0701 2.3897-1.9651 3.3457-1.6731 1.762-3.8975 2.901-6.3052 3.226"/></g></svg>

<svg width="383" height="105" viewBox="0 0 383 105" fill="none" xmlns="http://www.w3.org/2000/svg">
<path d="M14.6284 17.3561H7.05304L5.83702 20.8983H0.189303L7.94478 0.501258H13.7366L21.4921 20.8983H15.8444L14.6284 17.3561ZM13.2232 13.3271L10.8092 6.53114L8.45821 13.3271H13.2232Z" fill="white"/>
<path d="M54.3154 0.501258V16.4097H60.6206V20.9163H49.0189V0.501258H54.3154Z" fill="white"/>
<path d="M100.191 5.0079H93.8856V8.39689H99.8305V12.9035H93.8856V16.4187H100.191V20.9253H88.5891V0.501258H100.191V5.0079Z" fill="white"/>
<path d="M135.032 10.0193L128.682 0.501258H135.221L137.986 5.77402L141.418 0.501258H147.958L141.229 10.0193L148.822 20.8983H142.319L138.239 14.2465L133.447 20.8983H127.042L135.032 10.0193Z" fill="white"/>
<path d="M188.618 17.3561H181.051L179.835 20.8983H174.178L181.952 0.501258H187.735L195.463 20.8983H189.807L188.618 17.3561ZM187.212 13.3271L184.834 6.53114L182.456 13.3271H187.212Z" fill="white"/>
<path d="M223.008 20.8983V0.501258H228.305L238.096 12.9756V0.501258H243.365V20.8983H238.096L228.305 8.42393V20.8983H223.008Z" fill="white"/>
<path d="M272.829 0.501329H280.675C282.02 0.492708 283.351 0.77881 284.575 1.33956C285.769 1.88216 286.853 2.63986 287.773 3.57486C288.685 4.5083 289.412 5.60625 289.916 6.81062C290.428 8.03554 290.691 9.34983 290.691 10.6773C290.691 12.0048 290.428 13.3191 289.916 14.544C289.418 15.7573 288.694 16.8646 287.781 17.8068C286.881 18.745 285.815 19.5089 284.638 20.0601C283.406 20.6228 282.065 20.9089 280.711 20.8984H272.865L272.829 0.501329ZM278.134 16.4098H279.35C280.19 16.424 281.025 16.2772 281.81 15.9771C282.486 15.7101 283.1 15.3049 283.611 14.7874C284.112 14.2729 284.498 13.6587 284.746 12.9847C285.015 12.2518 285.15 11.4762 285.142 10.6953C285.148 9.91973 285.01 9.14975 284.737 8.424C284.483 7.74113 284.087 7.12026 283.574 6.60272C283.061 6.08518 282.445 5.68287 281.764 5.42258C280.989 5.12422 280.163 4.97736 279.332 4.98994H278.116L278.134 16.4098Z" fill="white"/>
<path d="M336.224 20.8983H329.675L324.622 13.0568V20.8983H319.326V0.501298H327.568C328.58 0.483368 329.588 0.651389 330.54 0.997028C331.33 1.29806 332.045 1.76527 332.639 2.36705C333.187 2.94119 333.61 3.62243 333.882 4.36799C334.164 5.14804 334.304 5.97217 334.296 6.80158C334.361 8.15056 333.967 9.48175 333.179 10.5781C332.338 11.6005 331.165 12.2956 329.865 12.543L336.224 20.8983ZM324.577 9.61372H325.577C326.429 9.67384 327.276 9.44524 327.982 8.96476C328.261 8.74392 328.483 8.45907 328.629 8.13432C328.774 7.80957 328.84 7.45446 328.82 7.09902C328.84 6.74358 328.774 6.38846 328.629 6.06371C328.483 5.73896 328.261 5.45412 327.982 5.23327C327.274 4.75724 326.428 4.52907 325.577 4.58431H324.577V9.61372Z" fill="white"/>
<path d="M376.127 17.3561H368.561L367.345 20.8983H361.697L369.453 0.501258H375.235L383 20.8983H377.343L376.127 17.3561ZM374.713 13.3271L372.335 6.53114L369.957 13.3271H374.713Z" fill="white"/>
<path d="M3.46815 41.9624L9.10686 56.1132L14.8266 41.9624H18.1955L9.00778 63.9007L0.108348 41.9624H3.46815Z" fill="white"/>
<path d="M61.4764 57.4201H52.7481L50.4422 62.3684H47.1634L57.2518 40.7365L66.98 62.3684H63.6112L61.4764 57.4201ZM60.2243 54.5268L57.1978 47.5866L54.0452 54.5268H60.2243Z" fill="white"/>
<path d="M99.9836 62.3683V40.5832L114.855 56.1492V41.9622H117.927V63.5941L103.082 48.0913V62.3683H99.9836Z" fill="white"/>
<path d="M169.954 62.3684H163.352L158.298 54.5268V62.3684H153.002V41.9623H161.235C162.248 41.9431 163.257 42.1143 164.207 42.4671C164.976 42.749 165.674 43.1973 166.25 43.7799C166.826 44.3626 167.267 45.0654 167.54 45.838C167.825 46.6176 167.968 47.4417 167.963 48.2716C168.026 49.6216 167.629 50.9529 166.837 52.0482C165.996 53.0705 164.823 53.7657 163.523 54.0131L169.954 62.3684ZM158.298 51.0928H159.298C160.149 51.148 160.995 50.9198 161.703 50.4438C161.967 50.2087 162.177 49.9206 162.322 49.5983C162.466 49.276 162.541 48.9268 162.541 48.5736C162.541 48.2203 162.466 47.8711 162.322 47.5488C162.177 47.2265 161.967 46.9384 161.703 46.7033C160.995 46.2273 160.149 45.9991 159.298 46.0543H158.298V51.0928Z" fill="white"/>
<path d="M211.046 41.9624V62.3684H205.75V41.9624H211.046ZM224.557 41.9624V57.3661C224.559 57.9174 224.525 58.4683 224.458 59.0155C224.411 59.4593 224.309 59.8954 224.152 60.3134C223.803 61.1308 223.277 61.8604 222.612 62.4495C221.343 63.5916 219.688 64.21 217.982 64.1801C216.898 64.195 215.828 63.9258 214.88 63.3993C213.932 62.8728 213.138 62.1072 212.577 61.1787L216.036 57.6365C216.093 58.1694 216.299 58.6756 216.631 59.0966C216.766 59.2672 216.939 59.4045 217.136 59.4983C217.332 59.592 217.548 59.6396 217.766 59.6374C218.757 59.6374 219.252 58.8532 219.252 57.2849V41.9624H224.557Z" fill="white"/>
<path d="M277.125 48.7854C276.591 48.086 275.903 47.5195 275.114 47.1302C274.325 46.7409 273.456 46.5393 272.577 46.5411C271.822 46.5338 271.074 46.681 270.379 46.9737C269.724 47.2487 269.131 47.6499 268.631 48.1545C268.133 48.6721 267.743 49.2852 267.487 49.9571C267.203 50.6614 267.059 51.4147 267.064 52.1744C267.057 52.943 267.201 53.7054 267.487 54.4187C267.751 55.0814 268.143 55.6853 268.641 56.1958C269.138 56.7063 269.732 57.1132 270.388 57.3931C271.071 57.6844 271.807 57.8317 272.55 57.8257C273.422 57.8099 274.281 57.6088 275.07 57.2359C275.859 56.863 276.559 56.3267 277.125 55.6625V61.9718L276.585 62.1611C275.842 62.43 275.08 62.6439 274.306 62.801C273.62 62.9331 272.924 62.9995 272.225 62.9993C269.448 62.9719 266.79 61.8592 264.821 59.8988C263.826 58.9093 263.025 57.7413 262.461 56.4557C261.879 55.0877 261.579 53.6162 261.579 52.1293C261.579 50.6425 261.879 49.1709 262.461 47.8029C263.312 45.8991 264.695 44.2821 266.444 43.1467C268.192 42.0113 270.231 41.406 272.315 41.4035C273.121 41.4043 273.924 41.492 274.711 41.6649C275.56 41.8504 276.39 42.116 277.188 42.4581L277.125 48.7854Z" fill="white"/>
<path d="M320.217 50.3808L326.676 41.9624H333.224L325.118 51.6246L333.963 62.3594H327.09L320.199 53.5174V62.3594H314.903V41.9624H320.199L320.217 50.3808Z" fill="white"/>
<path d="M381.505 46.469H375.199V49.885H381.144V54.3917H375.199V57.9068H381.505V62.4135H369.912V41.9624H381.505V46.469Z" fill="white"/>
<path d="M5.75581 83.4236L10.6829 95.8438L15.6281 83.4236H21.3839L12.7907 103.839H8.57516L0 83.4236H5.75581Z" fill="white"/>
<path d="M173.061 103.838H166.459L161.406 95.9969V103.838H156.109V83.4234H164.351C165.365 83.4042 166.373 83.5754 167.324 83.9281C168.094 84.208 168.792 84.6544 169.37 85.2355C169.948 85.8167 170.39 86.5182 170.665 87.2901C170.95 88.0728 171.093 88.8998 171.089 89.7327C171.15 91.0798 170.753 92.4078 169.963 93.5002C169.121 94.5226 167.949 95.2177 166.648 95.4651L173.061 103.838ZM161.406 92.5629H162.406C163.257 92.6181 164.102 92.3899 164.811 91.9139C165.074 91.6788 165.285 91.3907 165.429 91.0684C165.574 90.7461 165.648 90.3968 165.648 90.0436C165.648 89.6904 165.574 89.3412 165.429 89.0189C165.285 88.6966 165.074 88.4084 164.811 88.1734C164.101 87.7011 163.256 87.4732 162.406 87.5244H161.406V92.5629Z" fill="white"/>
<path d="M240.726 88.6602C240.205 88.2302 239.622 87.8808 238.997 87.6237C238.465 87.4058 237.896 87.2896 237.321 87.2812C236.725 87.2536 236.135 87.4248 235.646 87.7679C235.443 87.9112 235.278 88.1018 235.165 88.3232C235.052 88.5446 234.994 88.7902 234.998 89.0388C234.986 89.3697 235.102 89.6925 235.322 89.9401C235.567 90.1928 235.857 90.3976 236.178 90.544C236.56 90.7286 236.958 90.8794 237.366 90.9947C237.808 91.1208 238.267 91.256 238.673 91.4002C240.128 91.8038 241.444 92.6024 242.474 93.7077C243.314 94.782 243.742 96.1216 243.681 97.4842C243.693 98.4565 243.513 99.4215 243.149 100.323C242.808 101.158 242.281 101.904 241.609 102.505C240.884 103.137 240.038 103.615 239.123 103.911C238.044 104.257 236.915 104.425 235.781 104.406C233.213 104.409 230.708 103.605 228.62 102.108L230.89 97.8357C231.588 98.4765 232.381 99.0054 233.241 99.404C233.962 99.7348 234.745 99.9099 235.538 99.9178C236.236 99.9727 236.928 99.76 237.475 99.3229C237.67 99.1557 237.827 98.9485 237.936 98.7153C238.045 98.4821 238.103 98.2283 238.105 97.9709C238.111 97.6949 238.055 97.4209 237.943 97.1688C237.813 96.9225 237.628 96.7096 237.403 96.5468C237.099 96.3307 236.769 96.155 236.421 96.0241C236.015 95.8618 235.52 95.6816 234.943 95.4833C234.367 95.285 233.583 95.0236 232.926 94.7622C232.288 94.5144 231.695 94.1643 231.169 93.7257C230.643 93.274 230.219 92.7146 229.926 92.0853C229.586 91.2952 229.426 90.4393 229.458 89.5796C229.448 88.6548 229.616 87.7368 229.953 86.8756C230.269 86.0819 230.748 85.3633 231.358 84.7665C231.994 84.1605 232.748 83.6938 233.574 83.3965C234.516 83.0607 235.511 82.8959 236.511 82.9097C237.578 82.9189 238.64 83.0612 239.672 83.3334C240.772 83.6117 241.834 84.0233 242.834 84.5592L240.726 88.6602Z" fill="white"/>
<path d="M312.867 87.9302H306.562V91.3372H312.507V95.8438H306.562V99.359H312.867V103.866H301.266V83.4236H312.867V87.9302Z" fill="white"/>
<path d="M376.235 83.4236V99.3319H382.586V103.839H370.939V83.4236H376.235Z" fill="white"/>
<path d="M86.3191 104.082C87.3867 103.859 88.3881 103.391 89.2446 102.716C90.101 102.04 90.7893 101.175 91.2552 100.188C92.0825 98.399 92.2886 96.3845 91.8407 94.4648C91.4286 92.643 90.401 91.0194 88.9312 89.868C88.1777 89.2673 87.3102 88.8259 86.3813 88.5703C85.4523 88.3146 84.4812 88.2502 83.5267 88.3808C81.547 88.654 79.7559 89.7008 78.5456 91.2921C77.9288 92.106 77.4784 93.0337 77.2203 94.0219C76.9622 95.0102 76.9014 96.0397 77.0413 97.0516C77.3056 99.1856 78.3676 101.14 80.0138 102.523C80.8825 103.236 81.8994 103.746 82.9902 104.016C84.0811 104.285 85.2183 104.308 86.3191 104.082ZM86.3731 104.388C84.0562 104.736 81.6907 104.267 79.6805 103.063C78.6321 102.442 77.7225 101.612 77.0082 100.624C76.2939 99.6367 75.7901 98.5126 75.528 97.322C75.0155 94.8306 75.5111 92.2376 76.9062 90.1113C77.6159 89.0336 78.5309 88.1063 79.5988 87.3825C80.6668 86.6588 81.8669 86.1527 83.1304 85.8931C85.7508 85.35 88.4795 85.8547 90.7327 87.2992C91.8673 88.0362 92.8307 89.0081 93.5579 90.1493C94.2852 91.2906 94.7593 92.5747 94.9483 93.9149C95.1227 95.2127 95.0062 96.5331 94.6074 97.7803C94.2085 99.0275 93.5373 100.17 92.6423 101.126C90.9692 102.888 88.7448 104.027 86.3371 104.352" fill="white"/>
</svg>
